asset_auto_exported/icn_nubico.svg

<?xml version="1.0" encoding="UTF-8"?>
<svg width="24px" height="24px" viewBox="0 0 24 24" version="1.1" xmlns="http://www.w3.org/2000/svg" xmlns:xlink="http://www.w3.org/1999/xlink">
    <title>icn_nubico</title>
    <g id="Quique" stroke="none" stroke-width="1" fill="none" fill-rule="evenodd">
        <g id="Assets/Global/24/Nubico" fill="#000000" fill-rule="nonzero">
            <g id="-----ICON-LAYERS-----">
                <path d="M12,0 C18.62775,0 24,5.37225 24,12 C24,18.62775 18.62775,24 12,24 C5.37225,24 0,18.62775 0,12 C0,5.37225 5.37225,0 12,0 Z M13.7647059,7.5 C12.780262,7.5 11.9034028,7.96983733 11.3393063,8.70164226 C11.0146084,8.50980986 10.6375236,8.4 10.2352941,8.4 C9.15494337,8.4 8.25598796,9.19217871 8.0673107,10.2376747 C7.91118252,10.2128724 7.75118269,10.2 7.58823529,10.2 C5.88265004,10.2 4.5,11.610303 4.5,13.35 C4.5,14.9369 5.65044062,16.2497263 7.14702399,16.4680949 L7.14702399,16.4680949 L7.14705882,16.5 L16.8529412,16.5 L17.0203453,16.4946881 C18.404282,16.4065953 19.5,15.2338162 19.5,13.8 C19.5,12.3088312 18.3148714,11.1 16.8529412,11.1 L16.8529412,11.1 L16.8214084,11.101838 C16.842188,10.9542813 16.8529412,10.8034216 16.8529412,10.65 C16.8529412,8.91030304 15.4702911,7.5 13.7647059,7.5 Z" id="Combined-Shape"></path>
            </g>
        </g>
    </g>
</svg>

<svg width="24" height="24" viewBox="0 0 24 24" xmlns="http://www.w3.org/2000/svg"><path d="M12 0c6.628 0 12 5.372 12 12s-5.372 12-12 12S0 18.628 0 12 5.372 0 12 0zm1.765 7.5c-.985 0-1.862.47-2.426 1.202a2.163 2.163 0 00-1.104-.302c-1.08 0-1.979.792-2.168 1.838a3.052 3.052 0 00-.479-.038c-1.705 0-3.088 1.41-3.088 3.15 0 1.587 1.15 2.9 2.647 3.118v.032h9.706l.167-.005c1.384-.088 2.48-1.261 2.48-2.695 0-1.491-1.185-2.7-2.647-2.7l-.032.002c.021-.148.032-.299.032-.452 0-1.74-1.383-3.15-3.088-3.15z" fill="#000" fill-rule="nonzero"/></svg>
